static/img/article-icons/python.svg

<?xml version="1.0" standalone="no"?><!-- Generator: Gravit.io --><svg xmlns="http://www.w3.org/2000/svg" xmlns:xlink="http://www.w3.org/1999/xlink" style="isolation:isolate" viewBox="652.016 1196.922 80 81.43" width="80px" height="81.43px"><g><path d=" M 711.222 1225.881 C 711.037 1220.015 711.194 1214.149 711.167 1208.282 C 711.198 1207.308 711.089 1206.335 710.842 1205.392 C 709.521 1201.051 706.288 1198.778 702.052 1197.92 C 696.494 1196.803 690.789 1196.622 685.172 1197.386 C 682.586 1197.756 680.038 1198.35 677.555 1199.161 C 675.468 1199.819 673.88 1201.276 673.281 1203.484 C 672.253 1207.26 672.803 1211.107 672.698 1215.078 L 674.739 1215.078 C 679.988 1215.078 685.237 1215.078 690.486 1215.078 C 691.44 1215.078 692.147 1215.078 692.153 1216.418 C 692.159 1217.758 691.536 1217.823 690.538 1217.817 Q 684.054 1217.795 677.57 1217.817 C 672.994 1217.838 668.412 1217.817 663.84 1217.962 C 661.231 1218.042 658.986 1219.197 657.081 1220.966 C 654.759 1223.127 653.762 1225.931 653.045 1228.938 C 651.288 1236.123 651.789 1243.675 654.481 1250.564 C 655.784 1253.96 658.152 1256.508 661.947 1256.946 C 664.531 1257.255 667.177 1257.005 670.077 1257.005 C 670.077 1254.393 670.077 1251.935 670.077 1249.48 C 670.077 1241.372 675.381 1236.092 683.523 1236.083 C 689.337 1236.083 695.16 1235.888 700.962 1236.135 C 706.702 1236.382 711.401 1231.575 711.222 1225.881 Z  M 681.059 1210.304 C 678.96 1210.304 677.419 1208.714 677.419 1206.581 C 677.419 1204.447 679.163 1202.672 681.186 1202.749 C 683.225 1202.867 684.8 1204.586 684.74 1206.627 C 684.766 1207.611 684.387 1208.562 683.691 1209.258 C 682.995 1209.953 682.043 1210.332 681.059 1210.304 L 681.059 1210.304 Z " fill="rgb(23,204,195)"/><path d=" M 731.363 1231.745 C 730.735 1228.585 729.778 1225.499 728.51 1222.538 C 727.148 1219.45 724.496 1217.832 720.951 1217.94 C 719.309 1217.993 717.66 1217.94 716.011 1217.94 C 713.995 1217.94 714.035 1217.94 713.976 1219.975 C 713.89 1223.001 714.112 1226.098 713.535 1229.034 C 712.371 1234.965 707.214 1238.865 701.042 1238.914 C 694.614 1238.964 688.182 1238.887 681.751 1238.97 C 677.459 1239.025 673.198 1242.789 673.038 1247.063 C 672.781 1253.942 672.892 1260.836 672.905 1267.722 C 672.905 1270.217 674.14 1272.208 676.11 1273.588 C 677.679 1274.737 679.395 1275.671 681.21 1276.367 C 686.151 1278.177 691.313 1278.914 696.5 1277.88 C 699.811 1277.235 703.034 1276.206 706.106 1274.814 C 709.502 1273.239 711.355 1270.325 711.111 1266.348 C 711.014 1264.755 711.014 1263.158 711.111 1261.565 C 711.185 1260.302 710.778 1259.873 709.475 1259.889 C 704.127 1259.953 698.773 1259.889 693.419 1259.935 C 692.243 1259.935 691.752 1259.595 691.758 1258.363 C 691.764 1257.131 692.375 1256.955 693.4 1256.965 C 698.081 1257.002 702.765 1256.965 707.446 1256.965 C 711.972 1256.965 716.502 1256.965 721.032 1256.965 C 721.697 1256.964 722.361 1256.9 723.014 1256.773 C 726.41 1256.106 727.954 1253.519 729.226 1250.681 C 731.943 1244.617 732.718 1238.254 731.363 1231.745 Z  M 702.821 1264.437 C 704.831 1264.412 706.622 1266.203 706.649 1268.268 C 706.685 1270.367 705.069 1272.124 702.975 1272.264 C 700.95 1272.341 699.048 1270.445 699.045 1268.352 C 699.042 1266.258 700.814 1264.464 702.821 1264.437 Z " fill="rgb(224,22,102)"/></g></svg>

<svg xmlns="http://www.w3.org/2000/svg" style="isolation:isolate" viewBox="652 1196.9 80 81.4" width="80" height="81.4"><path d="M711.2 1225.9c-.2-5.9 0-11.8 0-17.6 0-1-.1-2-.4-3-1.3-4.2-4.5-6.5-8.7-7.4a50.9 50.9 0 0 0-24.5 1.3c-2.1.6-3.7 2-4.3 4.3-1 3.8-.5 7.6-.6 11.6h17.8c1 0 1.6 0 1.7 1.3 0 1.4-.7 1.4-1.7 1.4h-13c-4.5 0-9 0-13.7.2-2.6 0-4.8 1.2-6.7 3a15 15 0 0 0-4 8 36 36 0 0 0 1.4 21.6c1.3 3.4 3.7 6 7.4 6.3 2.6.4 5.3.1 8.2.1v-7.5c0-8.1 5.3-13.4 13.4-13.4 5.8 0 11.7-.2 17.5 0a10 10 0 0 0 10.2-10.2zm-30.1-15.6a3.6 3.6 0 0 1-3.7-3.7c0-2.2 1.8-4 3.8-3.9 2 .2 3.6 1.9 3.5 4a3.6 3.6 0 0 1-3.6 3.6z" fill="#17CCC3"/><path d="M731.4 1231.7c-.7-3.1-1.6-6.2-2.9-9.2-1.4-3-4-4.7-7.5-4.6h-5c-2 0-2 0-2 2-.1 3.1.1 6.2-.5 9.1-1.1 6-6.3 9.9-12.5 10h-19.2c-4.3 0-8.6 3.8-8.8 8-.2 7-.1 13.8-.1 20.7a7 7 0 0 0 3.2 5.9 28.1 28.1 0 0 0 20.4 4.3c3.3-.7 6.5-1.7 9.6-3a8.2 8.2 0 0 0 5-8.6v-4.7c0-1.3-.3-1.7-1.6-1.7h-16c-1.3 0-1.7-.3-1.7-1.5 0-1.3.6-1.4 1.6-1.4H721l2-.2c3.4-.7 5-3.3 6.2-6.1 2.7-6 3.5-12.4 2.2-19zm-28.6 32.7a4 4 0 0 1 3.8 3.9 4 4 0 0 1-3.6 4c-2 0-4-1.9-4-4a4 4 0 0 1 3.8-3.9z" fill="#E01666"/></svg>
